X: 52
T: The Siege Of Ennis
B: begged borrowed and stolen
B: ralph
B: steve tunes
M:2/4
L:1/8
R: polka
Q: 1/4=100
K:Gmajor
V:1 
|:"G"D>E DB,|DE GA|Bd/B/ "D"AB/A/|"C"GE E>G|
 "G"D>E DB,|DE GA|"C"Bd/B/ "D"AB/A/|1 "G"G2 GE:|2 "G"G2 GA||
 "G"Bd dc/B/|"C"ce e>f|"G"Bd dG/A/|"Em"BA A2|
 "G"Bd dc/B/|"C"ce e>f|"C"ge "D"f/e/d|"C"e2 e>f|
 "C"ge "D"fd|"C"e/f/e/d/ "G"BA|"G"Bd AB/A/|"Em"GE EG|
"G" D>E DB,|DE G>A|Bd "D"AB/A/|"G"G2 G2||
% abcbook-tune_id 62828a3a94ccfed073209176


% abcbook-boost 0
% abcbook-tablature 
% abcbook-transpose 
% abcbook-lastupdated 1665482802297
% abcbook-soundfonts 
% abcbook-repeats 3
% abc-sessionorg_id 1640
% abc-sessionorg_setting 0
% abc-sessionorg_setting_id 1640
% abc-boost 0

